svgs/regular/turn-up.svg

<svg xmlns="http://www.w3.org/2000/svg" viewBox="0 0 384 512"><!--! Font Awesome Pro 6.6.0 by @fontawesome - https://fontawesome.com License - https://fontawesome.com/license (Commercial License) Copyright 2024 Fonticons, Inc. --><path d="M175.6 6.5c9.2-8.7 23.7-8.7 32.9 0l129 121.4c9.3 8.8 14.6 21 14.6 33.7c0 25.6-20.7 46.3-46.3 46.3L264 208l0 144c0 88.4-71.6 160-160 160l-48 0c-30.9 0-56-25.1-56-56l0-32c0-30.9 25.1-56 56-56l56 0c4.4 0 8-3.6 8-8l0-152-41.7 0C52.7 208 32 187.3 32 161.7c0-12.8 5.3-25 14.6-33.7L175.6 6.5zM82.5 160l61.5 0c13.3 0 24 10.7 24 24l0 176c0 30.9-25.1 56-56 56l-56 0c-4.4 0-8 3.6-8 8l0 32c0 4.4 3.6 8 8 8l48 0c61.9 0 112-50.1 112-112l0-168c0-13.3 10.7-24 24-24l61.5 0L192 57 82.5 160z"/></svg>

<svg xmlns="http://www.w3.org/2000/svg" viewBox="0 0 384 512"><!--! Font Awesome Pro 6.4.0 by @fontawesome - https://fontawesome.com License - https://fontawesome.com/license (Commercial License) Copyright 2023 Fonticons, Inc. --><path d="M175.6 6.5c9.2-8.7 23.7-8.7 32.9 0l129 121.4c9.3 8.8 14.6 21 14.6 33.7c0 25.6-20.7 46.3-46.3 46.3H264V352c0 88.4-71.6 160-160 160H56c-30.9 0-56-25.1-56-56V424c0-30.9 25.1-56 56-56h56c4.4 0 8-3.6 8-8V208H78.3C52.7 208 32 187.3 32 161.7c0-12.8 5.3-25 14.6-33.7L175.6 6.5zM82.5 160H144c13.3 0 24 10.7 24 24V360c0 30.9-25.1 56-56 56H56c-4.4 0-8 3.6-8 8v32c0 4.4 3.6 8 8 8h48c61.9 0 112-50.1 112-112V184c0-13.3 10.7-24 24-24h61.5L192 57 82.5 160z"/></svg>
